X:1
T:You
T:Carl Petter Opsahl
T:You
T:© 1985 Carl Petter Opsahl/TONO
T:ballade
C:Carl Petter Opsahl
Z:All Rights Reserved
L:1/8
Q:1/4=96
M:4/4
K:Gmin
V:1 treble nm="MusicXML Part"
%%MIDI program 0
V:1
 z4 z D ED |:"Gm" d2 B4 AG |"D7" ^FA D4 D2 |"A7" ^CB A4 G2 |"D7" ^FG A3 D ED :|2 %5
"A7" ^CB A4"D7" G^F ||"Gm" G8 |"Cm" e4 f2 e2 |"Gm" dB d6 |"Cm" e4 f2 e2 |"D7" dA d3 D ED | %11
"Gm" d2 B4 AG |"D7" ^FA D4 D2 |"A7" ^CB A4"D7" G^F |"Gm" G8 |] %15

